modules/hawcons-stroke/icons/icon-44-note-text.svg

<?xml version="1.0" encoding="UTF-8" standalone="no"?>
<svg width="32px" height="32px" viewBox="0 0 32 32" version="1.1" xmlns="http://www.w3.org/2000/svg" xmlns:xlink="http://www.w3.org/1999/xlink" xmlns:sketch="http://www.bohemiancoding.com/sketch/ns">
    <!-- Generator: Sketch 3.0.3 (7891) - http://www.bohemiancoding.com/sketch -->
    <title>icon 44 note text</title>
    <desc>Created with Sketch.</desc>
    <defs></defs>
    <g id="Page-1" stroke="none" stroke-width="1" fill="none" fill-rule="evenodd" sketch:type="MSPage">
        <g id="icon-44-note-text" sketch:type="MSArtboardGroup" fill="#929292">
            <path d="M6,11 L6,26.0012539 C6,26.5613852 6.45106594,27 7.00748397,27 L21,27 L21,22.0059191 C21,20.8865548 21.8944962,20 22.9979131,20 L27,20 L27,11 L6,11 L6,11 L6,11 Z M6,10 L6,6.99874609 C6,6.44715386 6.43861485,6 6.99874609,6 L26.0012539,6 C26.5528461,6 27,6.44994876 27,7.00684547 L27,10 L6,10 L6,10 Z M21.5,28 L7.00010618,28 C5.89547804,28 5,27.0983727 5,25.9991358 L5,7.00086422 C5,5.89581743 5.90162726,5 7.00086422,5 L25.9991358,5 C27.1041826,5 28,5.89451376 28,6.99406028 L28,20.5 L28,21 L22,28 L21.5,28 L21.5,28 L21.5,28 Z M22,26.5 L22,22.0087848 C22,21.4516483 22.4506511,21 22.9967388,21 L26.6999512,21 L22,26.5 L22,26.5 Z M8,14 L8,15 L25,15 L25,14 L8,14 L8,14 Z M8,17 L8,18 L25,18 L25,17 L8,17 L8,17 Z M8,20 L8,21 L19,21 L19,20 L8,20 L8,20 Z M8,23 L8,24 L19,24 L19,23 L8,23 L8,23 Z" id="note-text" sketch:type="MSShapeGroup"></path>
        </g>
    </g>
</svg>

<svg width="32" height="32" xmlns="http://www.w3.org/2000/svg"><path d="M6 11v15.001c0 .56.451.999 1.007.999H21v-4.994c0-1.12.894-2.006 1.998-2.006H27v-9H6zm0-1V6.999C6 6.447 6.439 6 6.999 6H26c.552 0 .999.45.999 1.007V10H6zm15.5 18H7c-1.105 0-2-.902-2-2V7c0-1.104.902-2 2-2h19c1.104 0 2 .895 2 1.994V21l-6 7h-.5zm.5-1.5v-4.491c0-.557.45-1.009.997-1.009H26.7L22 26.5zM8 14v1h17v-1H8zm0 3v1h17v-1H8zm0 3v1h11v-1H8zm0 3v1h11v-1H8z" fill="#929292" fill-rule="evenodd"/></svg>
